(.../EAGLE-7.2.0/ulp/pcb-gcode.ulp)
(Copyright 2005 - 2012 by John Johnson)
(See readme.txt for licensing terms.)
(This file generated from the board:)
(.../eagle/esppostkasse/postkasse.brd)
(Current profile is .../pcb-gcode-3.6.2.4/profiles/emc.pp  )
(This file generated 01-09-2017 13:08:28)
(Settings from pcb-machine.h)
(spindle on time = 3.0000)
(  Tool Size)
(0.2540 )
(spindle speed = 30000.0000)
(tool change at 0.0000 0.0000 5.0000 )
(feed rate xy = F508.00 )
(feed rate z  = F254.00 )
(Z Axis Settings)
(  High     Up        Down     Drill)
(5.0000 	2.0000 	0.0000 	-1.6000 )
(Settings from pcb-defaults.h)
(isolate min = 0.0254)
(isolate max = 0.5080)
(isolate step = 0.1270)
(Generated top outlines, top drill, bottom outlines, bottom drill, )
(Unit of measure: mm)
(Metric Mode)
G21
(Absolute Coordinates)
G90
S30000
G00 Z5.0000 
G00 X0.0000 Y0.0000 
M03
G04 P3.000000
G00 Z2.0000 
G00 X-10.6606 Y0.6385 
G01 Z0.0000 F254.00 
G01 X-10.7985 Y0.5006 F508.00 
G01 X-10.9608 Y0.3921 
G01 X-11.1410 Y0.3175 
G01 X-11.3324 Y0.2794 
G01 X-12.7976 Y0.2794 
G01 X-12.9889 Y0.3175 
G01 X-13.1692 Y0.3921 
G01 X-13.3315 Y0.5006 
G01 X-13.4694 Y0.6385 
G01 X-13.5779 Y0.8008 
G01 X-13.6525 Y0.9810 
G01 X-13.6906 Y1.1724 
G01 X-13.6906 Y1.8263 
G01 X-13.8043 Y1.9745 
G01 X-13.9392 Y2.2081 
G01 X-14.0424 Y2.4573 
G01 X-14.0702 Y2.5612 
G01 X-29.1098 Y2.5612 
G01 X-29.1376 Y2.4573 
G01 X-29.2408 Y2.2081 
G01 X-29.3757 Y1.9745 
G01 X-29.4894 Y1.8263 
G01 X-29.4894 Y1.1724 
G01 X-29.5275 Y0.9810 
G01 X-29.6021 Y0.8008 
G01 X-29.7106 Y0.6385 
G01 X-29.8485 Y0.5006 
G01 X-30.0108 Y0.3921 
G01 X-30.1911 Y0.3175 
G01 X-30.3824 Y0.2794 
G01 X-31.8476 Y0.2794 
G01 X-32.0389 Y0.3175 
G01 X-32.2192 Y0.3921 
G01 X-32.3815 Y0.5006 
G01 X-32.5194 Y0.6385 
G01 X-32.6279 Y0.8008 
G01 X-32.7025 Y0.9810 
G01 X-32.7406 Y1.1724 
G01 X-32.7406 Y1.8915 
G01 X-32.8043 Y1.9745 
G01 X-32.9392 Y2.2081 
G01 X-33.0424 Y2.4573 
G01 X-33.1122 Y2.7178 
G01 X-33.1474 Y2.9851 
G01 X-33.1474 Y3.2548 
G01 X-33.1122 Y3.5222 
G01 X-33.0424 Y3.7827 
G01 X-32.9392 Y4.0319 
G01 X-32.8218 Y4.2352 
G01 X-41.0059 Y12.4193 
G01 X-41.0660 Y12.5235 
G01 X-41.0972 Y12.6398 
G01 X-41.0972 Y63.5602 
G01 X-41.0660 Y63.6765 
G01 X-41.0059 Y63.7807 
G01 X-40.9207 Y63.8659 
G01 X-40.8165 Y63.9260 
G01 X-40.7002 Y63.9572 
G01 X-34.2646 Y63.9572 
G01 X-34.2646 Y64.0155 
G01 X-33.5355 Y64.7446 
G01 X-32.5045 Y64.7446 
G01 X-32.4632 Y64.7034 
G01 X-32.0307 Y65.1359 
G01 X-31.9265 Y65.1960 
G01 X-31.8102 Y65.2272 
G01 X-28.0024 Y65.2272 
G01 X-27.9617 Y65.2881 
G01 X-27.8485 Y65.4013 
G01 X-27.7154 Y65.4903 
G01 X-27.5675 Y65.5516 
G01 X-27.4105 Y65.5828 
G01 X-27.1272 Y65.5828 
G01 X-27.1272 Y67.3354 
G01 X-27.1855 Y67.3354 
G01 X-27.9146 Y68.0645 
G01 X-27.9146 Y69.0955 
G01 X-27.1855 Y69.8246 
G01 X-26.1545 Y69.8246 
G01 X-25.4254 Y69.0955 
G01 X-25.4254 Y68.0645 
G01 X-26.1545 Y67.3354 
G01 X-26.2128 Y67.3354 
G01 X-26.2128 Y65.5828 
G01 X-25.9295 Y65.5828 
G01 X-25.7725 Y65.5516 
G01 X-25.6246 Y65.4903 
G01 X-25.4915 Y65.4013 
G01 X-25.3783 Y65.2881 
G01 X-25.2893 Y65.1550 
G01 X-25.2280 Y65.0071 
G01 X-25.1968 Y64.8501 
G01 X-25.1968 Y64.6899 
G01 X-25.2280 Y64.5329 
G01 X-25.2893 Y64.3850 
G01 X-25.3783 Y64.2519 
G01 X-25.4915 Y64.1387 
G01 X-25.6246 Y64.0497 
G01 X-25.7725 Y63.9884 
G01 X-25.9295 Y63.9572 
G01 X-27.4105 Y63.9572 
G01 X-27.5675 Y63.9884 
G01 X-27.7154 Y64.0497 
G01 X-27.8485 Y64.1387 
G01 X-27.9617 Y64.2519 
G01 X-28.0024 Y64.3128 
G01 X-31.5606 Y64.3128 
G01 X-31.8166 Y64.0568 
G01 X-31.7754 Y64.0155 
G01 X-31.7754 Y62.9845 
G01 X-32.5045 Y62.2554 
G01 X-33.5355 Y62.2554 
G01 X-34.2646 Y62.9845 
G01 X-34.2646 Y63.0428 
G01 X-40.1828 Y63.0428 
G01 X-40.1828 Y12.8894 
G01 X-32.1672 Y4.8738 
G01 X-32.0019 Y4.9692 
G01 X-31.7527 Y5.0724 
G01 X-31.4922 Y5.1422 
G01 X-31.2248 Y5.1774 
G01 X-30.9551 Y5.1774 
G01 X-30.6878 Y5.1422 
G01 X-30.4273 Y5.0724 
G01 X-30.1781 Y4.9692 
G01 X-29.9445 Y4.8343 
G01 X-29.7306 Y4.6702 
G01 X-29.5398 Y4.4794 
G01 X-29.3757 Y4.2655 
G01 X-29.2408 Y4.0319 
G01 X-29.1376 Y3.7827 
G01 X-29.1098 Y3.6788 
G01 X-14.0702 Y3.6788 
G01 X-14.0424 Y3.7827 
G01 X-13.9392 Y4.0319 
G01 X-13.8043 Y4.2655 
G01 X-13.6402 Y4.4794 
G01 X-13.4494 Y4.6702 
G01 X-13.2355 Y4.8343 
G01 X-13.0019 Y4.9692 
G01 X-12.7527 Y5.0724 
G01 X-12.5472 Y5.1275 
G01 X-12.5472 Y15.4620 
G01 X-12.5942 Y15.4695 
G01 X-12.7539 Y15.5214 
G01 X-12.9035 Y15.5976 
G01 X-13.0394 Y15.6963 
G01 X-13.1581 Y15.8150 
G01 X-13.2568 Y15.9509 
G01 X-13.3330 Y16.1005 
G01 X-13.3849 Y16.2602 
G01 X-13.4112 Y16.4260 
G01 X-13.4112 Y16.5940 
G01 X-13.3849 Y16.7598 
G01 X-13.3330 Y16.9195 
G01 X-13.2568 Y17.0691 
G01 X-13.1581 Y17.2050 
G01 X-13.0394 Y17.3237 
G01 X-12.9035 Y17.4224 
G01 X-12.7539 Y17.4986 
G01 X-12.5942 Y17.5505 
G01 X-12.4284 Y17.5768 
G01 X-10.4316 Y17.5768 
G01 X-10.2658 Y17.5505 
G01 X-10.1061 Y17.4986 
G01 X-9.9565 Y17.4224 
G01 X-9.8206 Y17.3237 
G01 X-9.7019 Y17.2050 
G01 X-9.6032 Y17.0691 
G01 X-9.5513 Y16.9672 
G01 X-9.0794 Y16.9672 
G01 X-7.5534 Y18.4932 
G01 X-7.5946 Y18.5345 
G01 X-7.5946 Y19.5655 
G01 X-6.8655 Y20.2946 
G01 X-5.8345 Y20.2946 
G01 X-5.1054 Y19.5655 
G01 X-5.1054 Y18.5345 
G01 X-5.8345 Y17.8054 
G01 X-6.8655 Y17.8054 
G01 X-6.9068 Y17.8466 
G01 X-8.6093 Y16.1441 
G01 X-8.7135 Y16.0840 
G01 X-8.8298 Y16.0528 
G01 X-9.5513 Y16.0528 
G01 X-9.6032 Y15.9509 
G01 X-9.7019 Y15.8150 
G01 X-9.8206 Y15.6963 
G01 X-9.9565 Y15.5976 
G01 X-10.1061 Y15.5214 
G01 X-10.2658 Y15.4695 
G01 X-10.4316 Y15.4432 
G01 X-11.6328 Y15.4432 
G01 X-11.6328 Y5.1275 
G01 X-11.4273 Y5.0724 
G01 X-11.1781 Y4.9692 
G01 X-10.9445 Y4.8343 
G01 X-10.7305 Y4.6702 
G01 X-10.5398 Y4.4794 
G01 X-10.3757 Y4.2655 
G01 X-10.2408 Y4.0319 
G01 X-10.1376 Y3.7827 
G01 X-10.0678 Y3.5222 
G01 X-10.0326 Y3.2548 
G01 X-10.0326 Y2.9851 
G01 X-10.0678 Y2.7178 
G01 X-10.1376 Y2.4573 
G01 X-10.2408 Y2.2081 
G01 X-10.3757 Y1.9745 
G01 X-10.4394 Y1.8915 
G01 X-10.4394 Y1.1724 
G01 X-10.4775 Y0.9810 
G01 X-10.5521 Y0.8008 
G01 X-10.6606 Y0.6385 
G00 Z2.0000 
G00 X-10.4316 Y17.9832 
G01 Z0.0000 F254.00 
G01 X-12.4284 Y17.9832 F508.00 
G01 X-12.5942 Y18.0095 
G01 X-12.7539 Y18.0614 
G01 X-12.9035 Y18.1376 
G01 X-13.0394 Y18.2363 
G01 X-13.1581 Y18.3550 
G01 X-13.2568 Y18.4909 
G01 X-13.3330 Y18.6405 
G01 X-13.3849 Y18.8002 
G01 X-13.4112 Y18.9660 
G01 X-13.4112 Y19.1340 
G01 X-13.3849 Y19.2998 
G01 X-13.3330 Y19.4595 
G01 X-13.2568 Y19.6091 
G01 X-13.1581 Y19.7450 
G01 X-13.0394 Y19.8637 
G01 X-12.9035 Y19.9624 
G01 X-12.7539 Y20.0386 
G01 X-12.5942 Y20.0905 
G01 X-12.4284 Y20.1168 
G01 X-10.4316 Y20.1168 
G01 X-10.2658 Y20.0905 
G01 X-10.1061 Y20.0386 
G01 X-9.9565 Y19.9624 
G01 X-9.8206 Y19.8637 
G01 X-9.7019 Y19.7450 
G01 X-9.6032 Y19.6091 
G01 X-9.5270 Y19.4595 
G01 X-9.4751 Y19.2998 
G01 X-9.4488 Y19.1340 
G01 X-9.4488 Y18.9660 
G01 X-9.4751 Y18.8002 
G01 X-9.5270 Y18.6405 
G01 X-9.6032 Y18.4909 
G01 X-9.7019 Y18.3550 
G01 X-9.8206 Y18.2363 
G01 X-9.9565 Y18.1376 
G01 X-10.1061 Y18.0614 
G01 X-10.2658 Y18.0095 
G01 X-10.4316 Y17.9832 
G00 Z2.0000 
G00 X-10.4316 Y20.5232 
G01 Z0.0000 F254.00 
G01 X-12.4284 Y20.5232 F508.00 
G01 X-12.5942 Y20.5495 
G01 X-12.7539 Y20.6014 
G01 X-12.9035 Y20.6776 
G01 X-13.0394 Y20.7763 
G01 X-13.1581 Y20.8950 
G01 X-13.2568 Y21.0309 
G01 X-13.3330 Y21.1805 
G01 X-13.3849 Y21.3402 
G01 X-13.4112 Y21.5060 
G01 X-13.4112 Y21.6740 
G01 X-13.3849 Y21.8398 
G01 X-13.3330 Y21.9995 
G01 X-13.2568 Y22.1491 
G01 X-13.1581 Y22.2850 
G01 X-13.0394 Y22.4037 
G01 X-12.9035 Y22.5024 
G01 X-12.7539 Y22.5786 
G01 X-12.5942 Y22.6305 
G01 X-12.4284 Y22.6568 
G01 X-10.4316 Y22.6568 
G01 X-10.2658 Y22.6305 
G01 X-10.1061 Y22.5786 
G01 X-9.9565 Y22.5024 
G01 X-9.8206 Y22.4037 
G01 X-9.7019 Y22.2850 
G01 X-9.6032 Y22.1491 
G01 X-9.5270 Y21.9995 
G01 X-9.4751 Y21.8398 
G01 X-9.4488 Y21.6740 
G01 X-9.4488 Y21.5060 
G01 X-9.4751 Y21.3402 
G01 X-9.5270 Y21.1805 
G01 X-9.6032 Y21.0309 
G01 X-9.7019 Y20.8950 
G01 X-9.8206 Y20.7763 
G01 X-9.9565 Y20.6776 
G01 X-10.1061 Y20.6014 
G01 X-10.2658 Y20.5495 
G01 X-10.4316 Y20.5232 
G00 Z2.0000 
G00 X-10.4316 Y23.0632 
G01 Z0.0000 F254.00 
G01 X-12.4284 Y23.0632 F508.00 
G01 X-12.5942 Y23.0895 
G01 X-12.7539 Y23.1414 
G01 X-12.9035 Y23.2176 
G01 X-13.0394 Y23.3163 
G01 X-13.1581 Y23.4350 
G01 X-13.2568 Y23.5709 
G01 X-13.3087 Y23.6728 
G01 X-24.1902 Y23.6728 
G01 X-24.3065 Y23.7040 
G01 X-24.4107 Y23.7641 
G01 X-24.4959 Y23.8493 
G01 X-24.5560 Y23.9535 
G01 X-24.5872 Y24.0698 
G01 X-24.5872 Y41.7206 
G01 X-27.0358 Y44.1693 
G01 X-27.0960 Y44.2735 
G01 X-27.1272 Y44.3898 
G01 X-27.1272 Y46.1772 
G01 X-27.4105 Y46.1772 
G01 X-27.5675 Y46.2084 
G01 X-27.7154 Y46.2697 
G01 X-27.8485 Y46.3587 
G01 X-27.9617 Y46.4719 
G01 X-28.0507 Y46.6050 
G01 X-28.1120 Y46.7529 
G01 X-28.1432 Y46.9099 
G01 X-28.1432 Y47.0701 
G01 X-28.1120 Y47.2271 
G01 X-28.0507 Y47.3750 
G01 X-27.9617 Y47.5081 
G01 X-27.8485 Y47.6213 
G01 X-27.7154 Y47.7103 
G01 X-27.5675 Y47.7716 
G01 X-27.4105 Y47.8028 
G01 X-25.9295 Y47.8028 
G01 X-25.7725 Y47.7716 
G01 X-25.6246 Y47.7103 
G01 X-25.4915 Y47.6213 
G01 X-25.3783 Y47.5081 
G01 X-25.2893 Y47.3750 
G01 X-25.2280 Y47.2271 
G01 X-25.1968 Y47.0701 
G01 X-25.1968 Y46.9099 
G01 X-25.2280 Y46.7529 
G01 X-25.2893 Y46.6050 
G01 X-25.3783 Y46.4719 
G01 X-25.4915 Y46.3587 
G01 X-25.6246 Y46.2697 
G01 X-25.7725 Y46.2084 
G01 X-25.9295 Y46.1772 
G01 X-26.2128 Y46.1772 
G01 X-26.2128 Y44.6394 
G01 X-23.8493 Y42.2758 
G01 X-23.7641 Y42.1907 
G01 X-23.7040 Y42.0865 
G01 X-23.6728 Y41.9702 
G01 X-23.6728 Y24.5872 
G01 X-13.3087 Y24.5872 
G01 X-13.2568 Y24.6891 
G01 X-13.1581 Y24.8250 
G01 X-13.0394 Y24.9437 
G01 X-12.9035 Y25.0424 
G01 X-12.7539 Y25.1186 
G01 X-12.5942 Y25.1705 
G01 X-12.4284 Y25.1968 
G01 X-10.4316 Y25.1968 
G01 X-10.2658 Y25.1705 
G01 X-10.1061 Y25.1186 
G01 X-9.9565 Y25.0424 
G01 X-9.8206 Y24.9437 
G01 X-9.7019 Y24.8250 
G01 X-9.6032 Y24.6891 
G01 X-9.5270 Y24.5395 
G01 X-9.4751 Y24.3798 
G01 X-9.4488 Y24.2140 
G01 X-9.4488 Y24.0460 
G01 X-9.4751 Y23.8802 
G01 X-9.5270 Y23.7205 
G01 X-9.6032 Y23.5709 
G01 X-9.7019 Y23.4350 
G01 X-9.8206 Y23.3163 
G01 X-9.9565 Y23.2176 
G01 X-10.1061 Y23.1414 
G01 X-10.2658 Y23.0895 
G01 X-10.4316 Y23.0632 
G00 Z2.0000 
G00 X-10.4316 Y25.6032 
G01 Z0.0000 F254.00 
G01 X-12.4284 Y25.6032 F508.00 
G01 X-12.5942 Y25.6295 
G01 X-12.7539 Y25.6814 
G01 X-12.9035 Y25.7576 
G01 X-13.0394 Y25.8563 
G01 X-13.1581 Y25.9750 
G01 X-13.2568 Y26.1109 
G01 X-13.3087 Y26.2128 
G01 X-22.9202 Y26.2128 
G01 X-23.0365 Y26.2440 
G01 X-23.1407 Y26.3041 
G01 X-23.2259 Y26.3893 
G01 X-23.2860 Y26.4935 
G01 X-23.3172 Y26.6098 
G01 X-23.3172 Y62.2902 
G01 X-23.2860 Y62.4065 
G01 X-23.2259 Y62.5107 
G01 X-23.1407 Y62.5958 
G01 X-23.0365 Y62.6560 
G01 X-22.9202 Y62.6872 
G01 X-20.3825 Y62.6872 
G01 X-20.3417 Y62.7481 
G01 X-20.2285 Y62.8613 
G01 X-20.0954 Y62.9503 
G01 X-19.9475 Y63.0116 
G01 X-19.7905 Y63.0428 
G01 X-18.3095 Y63.0428 
G01 X-18.1525 Y63.0116 
G01 X-18.0046 Y62.9503 
G01 X-17.8715 Y62.8613 
G01 X-17.7583 Y62.7481 
G01 X-17.6693 Y62.6150 
G01 X-17.6080 Y62.4671 
G01 X-17.5768 Y62.3101 
G01 X-17.5768 Y62.1499 
G01 X-17.6080 Y61.9929 
G01 X-17.6693 Y61.8450 
G01 X-17.7583 Y61.7119 
G01 X-17.8715 Y61.5987 
G01 X-18.0046 Y61.5097 
G01 X-18.1525 Y61.4484 
G01 X-18.3095 Y61.4172 
G01 X-19.7905 Y61.4172 
G01 X-19.9475 Y61.4484 
G01 X-20.0954 Y61.5097 
G01 X-20.2285 Y61.5987 
G01 X-20.3417 Y61.7119 
G01 X-20.3825 Y61.7728 
G01 X-22.4028 Y61.7728 
G01 X-22.4028 Y27.1272 
G01 X-13.3087 Y27.1272 
G01 X-13.2568 Y27.2291 
G01 X-13.1581 Y27.3650 
G01 X-13.0394 Y27.4837 
G01 X-12.9035 Y27.5824 
G01 X-12.7539 Y27.6586 
G01 X-12.5942 Y27.7105 
G01 X-12.4284 Y27.7368 
G01 X-10.4316 Y27.7368 
G01 X-10.2658 Y27.7105 
G01 X-10.1061 Y27.6586 
G01 X-9.9565 Y27.5824 
G01 X-9.8206 Y27.4837 
G01 X-9.7019 Y27.3650 
G01 X-9.6032 Y27.2291 
G01 X-9.5513 Y27.1272 
G01 X-7.5946 Y27.1272 
G01 X-7.5946 Y27.1855 
G01 X-6.8655 Y27.9146 
G01 X-5.8345 Y27.9146 
G01 X-5.1054 Y27.1855 
G01 X-5.1054 Y26.1545 
G01 X-5.8345 Y25.4254 
G01 X-6.8655 Y25.4254 
G01 X-7.5946 Y26.1545 
G01 X-7.5946 Y26.2128 
G01 X-9.5513 Y26.2128 
G01 X-9.6032 Y26.1109 
G01 X-9.7019 Y25.9750 
G01 X-9.8206 Y25.8563 
G01 X-9.9565 Y25.7576 
G01 X-10.1061 Y25.6814 
G01 X-10.2658 Y25.6295 
G01 X-10.4316 Y25.6032 
G00 Z2.0000 
G00 X-10.4316 Y28.1432 
G01 Z0.0000 F254.00 
G01 X-12.4284 Y28.1432 F508.00 
G01 X-12.5942 Y28.1695 
G01 X-12.7539 Y28.2214 
G01 X-12.9035 Y28.2976 
G01 X-13.0394 Y28.3963 
G01 X-13.1581 Y28.5150 
G01 X-13.2568 Y28.6509 
G01 X-13.3330 Y28.8005 
G01 X-13.3849 Y28.9602 
G01 X-13.4112 Y29.1260 
G01 X-13.4112 Y29.2940 
G01 X-13.3849 Y29.4598 
G01 X-13.3330 Y29.6195 
G01 X-13.2568 Y29.7691 
G01 X-13.1581 Y29.9050 
G01 X-13.0394 Y30.0237 
G01 X-12.9035 Y30.1224 
G01 X-12.7539 Y30.1986 
G01 X-12.5942 Y30.2505 
G01 X-12.4284 Y30.2768 
G01 X-10.4316 Y30.2768 
G01 X-10.2658 Y30.2505 
G01 X-10.1061 Y30.1986 
G01 X-9.9565 Y30.1224 
G01 X-9.8206 Y30.0237 
G01 X-9.7019 Y29.9050 
G01 X-9.6032 Y29.7691 
G01 X-9.5270 Y29.6195 
G01 X-9.4751 Y29.4598 
G01 X-9.4488 Y29.2940 
G01 X-9.4488 Y29.1260 
G01 X-9.4751 Y28.9602 
G01 X-9.5270 Y28.8005 
G01 X-9.6032 Y28.6509 
G01 X-9.7019 Y28.5150 
G01 X-9.8206 Y28.3963 
G01 X-9.9565 Y28.2976 
G01 X-10.1061 Y28.2214 
G01 X-10.2658 Y28.1695 
G01 X-10.4316 Y28.1432 
G00 Z2.0000 
G00 X-10.4316 Y30.6832 
G01 Z0.0000 F254.00 
G01 X-12.4284 Y30.6832 F508.00 
G01 X-12.5942 Y30.7095 
G01 X-12.7539 Y30.7614 
G01 X-12.9035 Y30.8376 
G01 X-13.0394 Y30.9363 
G01 X-13.1581 Y31.0550 
G01 X-13.2568 Y31.1909 
G01 X-13.3330 Y31.3405 
G01 X-13.3849 Y31.5002 
G01 X-13.4112 Y31.6660 
G01 X-13.4112 Y31.8340 
G01 X-13.3849 Y31.9998 
G01 X-13.3330 Y32.1595 
G01 X-13.2568 Y32.3091 
G01 X-13.1581 Y32.4450 
G01 X-13.0394 Y32.5637 
G01 X-12.9035 Y32.6624 
G01 X-12.7539 Y32.7386 
G01 X-12.5942 Y32.7905 
G01 X-12.4284 Y32.8168 
G01 X-10.4316 Y32.8168 
G01 X-10.2658 Y32.7905 
G01 X-10.1061 Y32.7386 
G01 X-9.9565 Y32.6624 
G01 X-9.8206 Y32.5637 
G01 X-9.7019 Y32.4450 
G01 X-9.6032 Y32.3091 
G01 X-9.5270 Y32.1595 
G01 X-9.4751 Y31.9998 
G01 X-9.4488 Y31.8340 
G01 X-9.4488 Y31.6660 
G01 X-9.4751 Y31.5002 
G01 X-9.5270 Y31.3405 
G01 X-9.6032 Y31.1909 
G01 X-9.7019 Y31.0550 
G01 X-9.8206 Y30.9363 
G01 X-9.9565 Y30.8376 
G01 X-10.1061 Y30.7614 
G01 X-10.2658 Y30.7095 
G01 X-10.4316 Y30.6832 
G00 Z2.0000 
G00 X-10.4316 Y33.2232 
G01 Z0.0000 F254.00 
G01 X-12.4284 Y33.2232 F508.00 
G01 X-12.5942 Y33.2495 
G01 X-12.7539 Y33.3014 
G01 X-12.9035 Y33.3776 
G01 X-13.0394 Y33.4763 
G01 X-13.1581 Y33.5950 
G01 X-13.2568 Y33.7309 
G01 X-13.3087 Y33.8328 
G01 X-21.6502 Y33.8328 
G01 X-21.7665 Y33.8640 
G01 X-21.8707 Y33.9241 
G01 X-21.9559 Y34.0093 
G01 X-22.0160 Y34.1135 
G01 X-22.0472 Y34.2298 
G01 X-22.0472 Y43.2402 
G01 X-22.0160 Y43.3565 
G01 X-21.9559 Y43.4607 
G01 X-21.8707 Y43.5459 
G01 X-21.7665 Y43.6060 
G01 X-21.6502 Y43.6372 
G01 X-7.9062 Y43.6372 
G01 X-7.8223 Y43.7629 
G01 X-7.6949 Y43.8903 
G01 X-7.5451 Y43.9903 
G01 X-7.3787 Y44.0593 
G01 X-7.2021 Y44.0944 
G01 X-5.4979 Y44.0944 
G01 X-5.3213 Y44.0593 
G01 X-5.1549 Y43.9903 
G01 X-5.0051 Y43.8903 
G01 X-4.8777 Y43.7629 
G01 X-4.7777 Y43.6131 
G01 X-4.7087 Y43.4467 
G01 X-4.6736 Y43.2701 
G01 X-4.6736 Y43.0899 
G01 X-4.7087 Y42.9133 
G01 X-4.7777 Y42.7469 
G01 X-4.8777 Y42.5971 
G01 X-5.0051 Y42.4697 
G01 X-5.1549 Y42.3697 
G01 X-5.3213 Y42.3007 
G01 X-5.4979 Y42.2656 
G01 X-7.2021 Y42.2656 
G01 X-7.3787 Y42.3007 
G01 X-7.5451 Y42.3697 
G01 X-7.6949 Y42.4697 
G01 X-7.8223 Y42.5971 
G01 X-7.9062 Y42.7228 
G01 X-21.1328 Y42.7228 
G01 X-21.1328 Y34.7472 
G01 X-13.3087 Y34.7472 
G01 X-13.2568 Y34.8491 
G01 X-13.1581 Y34.9850 
G01 X-13.0394 Y35.1037 
G01 X-12.9035 Y35.2024 
G01 X-12.7539 Y35.2786 
G01 X-12.5942 Y35.3305 
G01 X-12.4284 Y35.3568 
G01 X-10.4316 Y35.3568 
G01 X-10.2658 Y35.3305 
G01 X-10.1061 Y35.2786 
G01 X-9.9565 Y35.2024 
G01 X-9.8206 Y35.1037 
G01 X-9.7019 Y34.9850 
G01 X-9.6032 Y34.8491 
G01 X-9.5270 Y34.6995 
G01 X-9.4751 Y34.5398 
G01 X-9.4488 Y34.3740 
G01 X-9.4488 Y34.2060 
G01 X-9.4751 Y34.0402 
G01 X-9.5270 Y33.8805 
G01 X-9.6032 Y33.7309 
G01 X-9.7019 Y33.5950 
G01 X-9.8206 Y33.4763 
G01 X-9.9565 Y33.3776 
G01 X-10.1061 Y33.3014 
G01 X-10.2658 Y33.2495 
G01 X-10.4316 Y33.2232 
G00 Z2.0000 
G00 X-3.7498 Y40.1828 
G01 Z0.0000 F254.00 
G01 X-17.8054 Y40.1828 F508.00 
G01 X-17.8054 Y40.1245 
G01 X-18.5345 Y39.3954 
G01 X-19.5655 Y39.3954 
G01 X-20.2946 Y40.1245 
G01 X-20.2946 Y41.1555 
G01 X-19.5655 Y41.8846 
G01 X-18.5345 Y41.8846 
G01 X-17.8054 Y41.1555 
G01 X-17.8054 Y41.0972 
G01 X-4.2672 Y41.0972 
G01 X-4.2672 Y50.6106 
G01 X-4.6852 Y51.0286 
G01 X-5.5114 Y51.0286 
G01 X-6.1214 Y51.6386 
G01 X-6.1214 Y52.5014 
G01 X-5.5114 Y53.1114 
G01 X-4.6486 Y53.1114 
G01 X-4.0386 Y52.5014 
G01 X-4.0386 Y51.6752 
G01 X-3.4441 Y51.0807 
G01 X-3.3840 Y50.9765 
G01 X-3.3528 Y50.8602 
G01 X-3.3528 Y40.5798 
G01 X-3.3840 Y40.4635 
G01 X-3.4441 Y40.3593 
G01 X-3.5293 Y40.2741 
G01 X-3.6335 Y40.2140 
G01 X-3.7498 Y40.1828 
G00 Z2.0000 
G00 X-4.8777 Y45.1371 
G01 Z0.0000 F254.00 
G01 X-5.0051 Y45.0097 F508.00 
G01 X-5.1549 Y44.9097 
G01 X-5.3213 Y44.8407 
G01 X-5.4979 Y44.8056 
G01 X-7.2021 Y44.8056 
G01 X-7.3787 Y44.8407 
G01 X-7.5451 Y44.9097 
G01 X-7.6949 Y45.0097 
G01 X-7.8223 Y45.1371 
G01 X-7.9223 Y45.2869 
G01 X-7.9913 Y45.4533 
G01 X-8.0264 Y45.6299 
G01 X-8.0264 Y45.8101 
G01 X-7.9913 Y45.9867 
G01 X-7.9223 Y46.1531 
G01 X-7.8223 Y46.3029 
G01 X-7.6949 Y46.4303 
G01 X-7.5451 Y46.5303 
G01 X-7.3787 Y46.5993 
G01 X-7.2021 Y46.6344 
G01 X-6.8072 Y46.6344 
G01 X-6.8072 Y46.8006 
G01 X-10.5259 Y50.5193 
G01 X-10.5860 Y50.6235 
G01 X-10.6172 Y50.7398 
G01 X-10.6172 Y54.1528 
G01 X-17.7175 Y54.1528 
G01 X-17.7583 Y54.0919 
G01 X-17.8715 Y53.9787 
G01 X-18.0046 Y53.8897 
G01 X-18.1525 Y53.8284 
G01 X-18.3095 Y53.7972 
G01 X-18.5928 Y53.7972 
G01 X-18.5928 Y52.8828 
G01 X-18.3095 Y52.8828 
G01 X-18.1525 Y52.8516 
G01 X-18.0046 Y52.7903 
G01 X-17.8715 Y52.7013 
G01 X-17.7583 Y52.5881 
G01 X-17.7175 Y52.5272 
G01 X-16.4498 Y52.5272 
G01 X-16.3335 Y52.4960 
G01 X-16.2293 Y52.4359 
G01 X-16.1441 Y52.3507 
G01 X-16.0840 Y52.2465 
G01 X-16.0528 Y52.1302 
G01 X-16.0528 Y46.9298 
G01 X-16.0840 Y46.8135 
G01 X-16.1441 Y46.7093 
G01 X-16.2293 Y46.6241 
G01 X-16.3335 Y46.5640 
G01 X-16.4498 Y46.5328 
G01 X-17.7175 Y46.5328 
G01 X-17.7583 Y46.4719 
G01 X-17.8715 Y46.3587 
G01 X-18.0046 Y46.2697 
G01 X-18.1525 Y46.2084 
G01 X-18.3095 Y46.1772 
G01 X-19.7905 Y46.1772 
G01 X-19.9475 Y46.2084 
G01 X-20.0954 Y46.2697 
G01 X-20.2285 Y46.3587 
G01 X-20.3417 Y46.4719 
G01 X-20.4307 Y46.6050 
G01 X-20.4920 Y46.7529 
G01 X-20.5232 Y46.9099 
G01 X-20.5232 Y47.0701 
G01 X-20.4920 Y47.2271 
G01 X-20.4307 Y47.3750 
G01 X-20.3417 Y47.5081 
G01 X-20.2285 Y47.6213 
G01 X-20.0954 Y47.7103 
G01 X-19.9475 Y47.7716 
G01 X-19.7905 Y47.8028 
G01 X-18.3095 Y47.8028 
G01 X-18.1525 Y47.7716 
G01 X-18.0046 Y47.7103 
G01 X-17.8715 Y47.6213 
G01 X-17.7583 Y47.5081 
G01 X-17.7175 Y47.4472 
G01 X-16.9672 Y47.4472 
G01 X-16.9672 Y51.6128 
G01 X-17.7175 Y51.6128 
G01 X-17.7583 Y51.5519 
G01 X-17.8715 Y51.4387 
G01 X-18.0046 Y51.3497 
G01 X-18.1525 Y51.2884 
G01 X-18.3095 Y51.2572 
G01 X-19.7905 Y51.2572 
G01 X-19.9475 Y51.2884 
G01 X-20.0954 Y51.3497 
G01 X-20.2285 Y51.4387 
G01 X-20.3417 Y51.5519 
G01 X-20.4307 Y51.6850 
G01 X-20.4920 Y51.8329 
G01 X-20.5232 Y51.9899 
G01 X-20.5232 Y52.1501 
G01 X-20.4920 Y52.3071 
G01 X-20.4307 Y52.4550 
G01 X-20.3417 Y52.5881 
G01 X-20.2285 Y52.7013 
G01 X-20.0954 Y52.7903 
G01 X-19.9475 Y52.8516 
G01 X-19.7905 Y52.8828 
G01 X-19.5072 Y52.8828 
G01 X-19.5072 Y53.7972 
G01 X-19.7905 Y53.7972 
G01 X-19.9475 Y53.8284 
G01 X-20.0954 Y53.8897 
G01 X-20.2285 Y53.9787 
G01 X-20.3417 Y54.0919 
G01 X-20.4307 Y54.2250 
G01 X-20.4920 Y54.3729 
G01 X-20.5232 Y54.5299 
G01 X-20.5232 Y54.6901 
G01 X-20.4920 Y54.8471 
G01 X-20.4307 Y54.9950 
G01 X-20.3417 Y55.1281 
G01 X-20.2285 Y55.2413 
G01 X-20.0954 Y55.3303 
G01 X-19.9475 Y55.3916 
G01 X-19.7905 Y55.4228 
G01 X-19.5072 Y55.4228 
G01 X-19.5072 Y56.3372 
G01 X-19.7905 Y56.3372 
G01 X-19.9475 Y56.3684 
G01 X-20.0954 Y56.4297 
G01 X-20.2285 Y56.5187 
G01 X-20.3417 Y56.6319 
G01 X-20.4307 Y56.7650 
G01 X-20.4920 Y56.9129 
G01 X-20.5232 Y57.0699 
G01 X-20.5232 Y57.2301 
G01 X-20.4920 Y57.3871 
G01 X-20.4307 Y57.5350 
G01 X-20.3417 Y57.6681 
G01 X-20.2285 Y57.7813 
G01 X-20.0954 Y57.8703 
G01 X-19.9475 Y57.9316 
G01 X-19.7905 Y57.9628 
G01 X-19.5072 Y57.9628 
G01 X-19.5072 Y58.8772 
G01 X-19.7905 Y58.8772 
G01 X-19.9475 Y58.9084 
G01 X-20.0954 Y58.9697 
G01 X-20.2285 Y59.0587 
G01 X-20.3417 Y59.1719 
G01 X-20.4307 Y59.3050 
G01 X-20.4920 Y59.4529 
G01 X-20.5232 Y59.6099 
G01 X-20.5232 Y59.7701 
G01 X-20.4920 Y59.9271 
G01 X-20.4307 Y60.0750 
G01 X-20.3417 Y60.2081 
G01 X-20.2285 Y60.3213 
G01 X-20.0954 Y60.4103 
G01 X-19.9475 Y60.4716 
G01 X-19.7905 Y60.5028 
G01 X-18.3095 Y60.5028 
G01 X-18.1525 Y60.4716 
G01 X-18.0046 Y60.4103 
G01 X-17.8715 Y60.3213 
G01 X-17.7583 Y60.2081 
G01 X-17.6693 Y60.0750 
G01 X-17.6080 Y59.9271 
G01 X-17.5768 Y59.7701 
G01 X-17.5768 Y59.6099 
G01 X-17.6080 Y59.4529 
G01 X-17.6693 Y59.3050 
G01 X-17.7583 Y59.1719 
G01 X-17.8715 Y59.0587 
G01 X-18.0046 Y58.9697 
G01 X-18.1525 Y58.9084 
G01 X-18.3095 Y58.8772 
G01 X-18.5928 Y58.8772 
G01 X-18.5928 Y57.9628 
G01 X-18.3095 Y57.9628 
G01 X-18.1525 Y57.9316 
G01 X-18.0046 Y57.8703 
G01 X-17.8715 Y57.7813 
G01 X-17.7583 Y57.6681 
G01 X-17.6693 Y57.5350 
G01 X-17.6080 Y57.3871 
G01 X-17.5768 Y57.2301 
G01 X-17.5768 Y57.0699 
G01 X-17.6080 Y56.9129 
G01 X-17.6693 Y56.7650 
G01 X-17.7583 Y56.6319 
G01 X-17.8715 Y56.5187 
G01 X-18.0046 Y56.4297 
G01 X-18.1525 Y56.3684 
G01 X-18.3095 Y56.3372 
G01 X-18.5928 Y56.3372 
G01 X-18.5928 Y55.4228 
G01 X-18.3095 Y55.4228 
G01 X-18.1525 Y55.3916 
G01 X-18.0046 Y55.3303 
G01 X-17.8715 Y55.2413 
G01 X-17.7583 Y55.1281 
G01 X-17.7175 Y55.0672 
G01 X-6.8072 Y55.0672 
G01 X-6.8072 Y61.3156 
G01 X-7.2021 Y61.3156 
G01 X-7.3787 Y61.3507 
G01 X-7.5451 Y61.4197 
G01 X-7.6949 Y61.5197 
G01 X-7.8223 Y61.6471 
G01 X-7.9223 Y61.7969 
G01 X-7.9913 Y61.9633 
G01 X-8.0264 Y62.1399 
G01 X-8.0264 Y62.3201 
G01 X-7.9913 Y62.4967 
G01 X-7.9223 Y62.6631 
G01 X-7.8223 Y62.8129 
G01 X-7.6949 Y62.9403 
G01 X-7.5451 Y63.0403 
G01 X-7.3787 Y63.1093 
G01 X-7.2021 Y63.1444 
G01 X-5.4979 Y63.1444 
G01 X-5.3213 Y63.1093 
G01 X-5.1549 Y63.0403 
G01 X-5.0051 Y62.9403 
G01 X-4.8777 Y62.8129 
G01 X-4.7938 Y62.6872 
G01 X-2.9972 Y62.6872 
G01 X-2.9972 Y74.4728 
G01 X-10.3770 Y74.4728 
G01 X-10.5398 Y74.2605 
G01 X-10.7305 Y74.0698 
G01 X-10.9445 Y73.9057 
G01 X-11.1781 Y73.7708 
G01 X-11.4273 Y73.6676 
G01 X-11.6878 Y73.5978 
G01 X-11.9551 Y73.5626 
G01 X-12.2248 Y73.5626 
G01 X-12.4922 Y73.5978 
G01 X-12.7527 Y73.6676 
G01 X-13.0019 Y73.7708 
G01 X-13.2355 Y73.9057 
G01 X-13.4494 Y74.0698 
G01 X-13.6402 Y74.2605 
G01 X-13.8043 Y74.4745 
G01 X-13.9392 Y74.7081 
G01 X-14.0424 Y74.9573 
G01 X-14.0702 Y75.0612 
G01 X-23.6728 Y75.0612 
G01 X-23.6728 Y58.3598 
G01 X-23.7040 Y58.2435 
G01 X-23.7641 Y58.1393 
G01 X-25.0341 Y56.8693 
G01 X-25.1193 Y56.7841 
G01 X-25.2235 Y56.7240 
G01 X-25.3371 Y56.6935 
G01 X-25.3783 Y56.6319 
G01 X-25.4915 Y56.5187 
G01 X-25.6246 Y56.4297 
G01 X-25.7725 Y56.3684 
G01 X-25.9295 Y56.3372 
G01 X-26.2128 Y56.3372 
G01 X-26.2128 Y55.4228 
G01 X-25.9295 Y55.4228 
G01 X-25.7725 Y55.3916 
G01 X-25.6246 Y55.3303 
G01 X-25.4915 Y55.2413 
G01 X-25.3783 Y55.1281 
G01 X-25.2893 Y54.9950 
G01 X-25.2280 Y54.8471 
G01 X-25.1968 Y54.6901 
G01 X-25.1968 Y54.5299 
G01 X-25.2280 Y54.3729 
G01 X-25.2893 Y54.2250 
G01 X-25.3783 Y54.0919 
G01 X-25.4915 Y53.9787 
G01 X-25.6246 Y53.8897 
G01 X-25.7725 Y53.8284 
G01 X-25.9295 Y53.7972 
G01 X-26.2128 Y53.7972 
G01 X-26.2128 Y52.8828 
G01 X-25.9295 Y52.8828 
G01 X-25.7725 Y52.8516 
G01 X-25.6246 Y52.7903 
G01 X-25.4915 Y52.7013 
G01 X-25.3783 Y52.5881 
G01 X-25.2893 Y52.4550 
G01 X-25.2280 Y52.3071 
G01 X-25.1968 Y52.1501 
G01 X-25.1968 Y51.9899 
G01 X-25.2280 Y51.8329 
G01 X-25.2893 Y51.6850 
G01 X-25.3783 Y51.5519 
G01 X-25.4915 Y51.4387 
G01 X-25.6246 Y51.3497 
G01 X-25.7725 Y51.2884 
G01 X-25.9295 Y51.2572 
G01 X-27.4105 Y51.2572 
G01 X-27.5675 Y51.2884 
G01 X-27.7154 Y51.3497 
G01 X-27.8485 Y51.4387 
G01 X-27.9617 Y51.5519 
G01 X-28.0025 Y51.6128 
G01 X-31.5606 Y51.6128 
G01 X-37.6428 Y45.5306 
G01 X-37.6428 Y19.5072 
G01 X-36.1687 Y19.5072 
G01 X-36.1168 Y19.6091 
G01 X-36.0181 Y19.7450 
G01 X-35.8994 Y19.8637 
G01 X-35.7635 Y19.9624 
G01 X-35.6139 Y20.0386 
G01 X-35.4542 Y20.0905 
G01 X-35.2884 Y20.1168 
G01 X-33.2916 Y20.1168 
G01 X-33.1258 Y20.0905 
G01 X-32.9661 Y20.0386 
G01 X-32.8165 Y19.9624 
G01 X-32.6806 Y19.8637 
G01 X-32.5619 Y19.7450 
G01 X-32.4632 Y19.6091 
G01 X-32.3870 Y19.4595 
G01 X-32.3351 Y19.2998 
G01 X-32.3088 Y19.1340 
G01 X-32.3088 Y18.9660 
G01 X-32.3351 Y18.8002 
G01 X-32.3870 Y18.6405 
G01 X-32.4632 Y18.4909 
G01 X-32.5619 Y18.3550 
G01 X-32.6806 Y18.2363 
G01 X-32.8165 Y18.1376 
G01 X-32.9661 Y18.0614 
G01 X-33.1258 Y18.0095 
G01 X-33.2916 Y17.9832 
G01 X-35.2884 Y17.9832 
G01 X-35.4542 Y18.0095 
G01 X-35.6139 Y18.0614 
G01 X-35.7635 Y18.1376 
G01 X-35.8994 Y18.2363 
G01 X-36.0181 Y18.3550 
G01 X-36.1168 Y18.4909 
G01 X-36.1687 Y18.5928 
G01 X-38.1602 Y18.5928 
G01 X-38.2765 Y18.6240 
G01 X-38.3807 Y18.6841 
G01 X-38.4659 Y18.7693 
G01 X-38.5260 Y18.8735 
G01 X-38.5572 Y18.9898 
G01 X-38.5572 Y45.7802 
G01 X-38.5260 Y45.8965 
G01 X-38.4659 Y46.0007 
G01 X-32.1159 Y52.3507 
G01 X-32.0307 Y52.4359 
G01 X-31.9265 Y52.4960 
G01 X-31.8102 Y52.5272 
G01 X-28.0025 Y52.5272 
G01 X-27.9617 Y52.5881 
G01 X-27.8485 Y52.7013 
G01 X-27.7154 Y52.7903 
G01 X-27.5675 Y52.8516 
G01 X-27.4105 Y52.8828 
G01 X-27.1272 Y52.8828 
G01 X-27.1272 Y53.7972 
G01 X-27.4105 Y53.7972 
G01 X-27.5675 Y53.8284 
G01 X-27.7154 Y53.8897 
G01 X-27.8485 Y53.9787 
G01 X-27.9617 Y54.0919 
G01 X-28.0507 Y54.2250 
G01 X-28.1120 Y54.3729 
G01 X-28.1432 Y54.5299 
G01 X-28.1432 Y54.6901 
G01 X-28.1120 Y54.8471 
G01 X-28.0507 Y54.9950 
G01 X-27.9617 Y55.1281 
G01 X-27.8485 Y55.2413 
G01 X-27.7154 Y55.3303 
G01 X-27.5675 Y55.3916 
G01 X-27.4105 Y55.4228 
G01 X-27.1272 Y55.4228 
G01 X-27.1272 Y56.3372 
G01 X-27.4105 Y56.3372 
G01 X-27.5675 Y56.3684 
G01 X-27.7154 Y56.4297 
G01 X-27.8485 Y56.5187 
G01 X-27.9617 Y56.6319 
G01 X-28.0507 Y56.7650 
G01 X-28.1120 Y56.9129 
G01 X-28.1432 Y57.0699 
G01 X-28.1432 Y57.2301 
G01 X-28.1120 Y57.3871 
G01 X-28.0507 Y57.5350 
G01 X-27.9617 Y57.6681 
G01 X-27.8485 Y57.7813 
G01 X-27.7154 Y57.8703 
G01 X-27.5675 Y57.9316 
G01 X-27.4105 Y57.9628 
G01 X-25.9295 Y57.9628 
G01 X-25.7725 Y57.9316 
G01 X-25.6246 Y57.8703 
G01 X-25.4915 Y57.7813 
G01 X-25.4534 Y57.7432 
G01 X-24.5872 Y58.6094 
G01 X-24.5872 Y61.7728 
G01 X-25.3375 Y61.7728 
G01 X-25.3783 Y61.7119 
G01 X-25.4915 Y61.5987 
G01 X-25.6246 Y61.5097 
G01 X-25.7725 Y61.4484 
G01 X-25.9295 Y61.4172 
G01 X-27.4105 Y61.4172 
G01 X-27.5675 Y61.4484 
G01 X-27.7154 Y61.5097 
G01 X-27.8485 Y61.5987 
G01 X-27.9617 Y61.7119 
G01 X-28.0507 Y61.8450 
G01 X-28.1120 Y61.9929 
G01 X-28.1432 Y62.1499 
G01 X-28.1432 Y62.3101 
G01 X-28.1120 Y62.4671 
G01 X-28.0507 Y62.6150 
G01 X-27.9617 Y62.7481 
G01 X-27.8485 Y62.8613 
G01 X-27.7154 Y62.9503 
G01 X-27.5675 Y63.0116 
G01 X-27.4105 Y63.0428 
G01 X-25.9295 Y63.0428 
G01 X-25.7725 Y63.0116 
G01 X-25.6246 Y62.9503 
G01 X-25.4915 Y62.8613 
G01 X-25.3783 Y62.7481 
G01 X-25.3375 Y62.6872 
G01 X-24.5872 Y62.6872 
G01 X-24.5872 Y75.0612 
G01 X-29.1098 Y75.0612 
G01 X-29.1376 Y74.9573 
G01 X-29.2408 Y74.7081 
G01 X-29.3757 Y74.4745 
G01 X-29.5398 Y74.2605 
G01 X-29.7306 Y74.0698 
G01 X-29.9445 Y73.9057 
G01 X-30.1781 Y73.7708 
G01 X-30.4273 Y73.6676 
G01 X-30.6878 Y73.5978 
G01 X-30.9551 Y73.5626 
G01 X-31.2248 Y73.5626 
G01 X-31.4922 Y73.5978 
G01 X-31.7527 Y73.6676 
G01 X-32.0019 Y73.7708 
G01 X-32.2355 Y73.9057 
G01 X-32.4494 Y74.0698 
G01 X-32.6402 Y74.2605 
G01 X-32.8043 Y74.4745 
G01 X-32.9392 Y74.7081 
G01 X-33.0424 Y74.9573 
G01 X-33.1122 Y75.2178 
G01 X-33.1474 Y75.4851 
G01 X-33.1474 Y75.7549 
G01 X-33.1122 Y76.0222 
G01 X-33.0424 Y76.2827 
G01 X-32.9392 Y76.5319 
G01 X-32.8043 Y76.7655 
G01 X-32.7406 Y76.8485 
G01 X-32.7406 Y78.8376 
G01 X-32.7025 Y79.0289 
G01 X-32.6279 Y79.2092 
G01 X-32.5194 Y79.3715 
G01 X-32.3815 Y79.5094 
G01 X-32.2192 Y79.6179 
G01 X-32.0389 Y79.6925 
G01 X-31.8476 Y79.7306 
G01 X-30.3824 Y79.7306 
G01 X-30.1911 Y79.6925 
G01 X-30.0108 Y79.6179 
G01 X-29.8485 Y79.5094 
G01 X-29.7106 Y79.3715 
G01 X-29.6021 Y79.2092 
G01 X-29.5275 Y79.0289 
G01 X-29.4894 Y78.8376 
G01 X-29.4894 Y76.9137 
G01 X-29.3757 Y76.7655 
G01 X-29.2408 Y76.5319 
G01 X-29.1376 Y76.2827 
G01 X-29.1098 Y76.1788 
G01 X-14.0702 Y76.1788 
G01 X-14.0424 Y76.2827 
G01 X-13.9392 Y76.5319 
G01 X-13.8043 Y76.7655 
G01 X-13.6906 Y76.9137 
G01 X-13.6906 Y78.8376 
G01 X-13.6525 Y79.0289 
G01 X-13.5779 Y79.2092 
G01 X-13.4694 Y79.3715 
G01 X-13.3315 Y79.5094 
G01 X-13.1692 Y79.6179 
G01 X-12.9889 Y79.6925 
G01 X-12.7976 Y79.7306 
G01 X-11.3324 Y79.7306 
G01 X-11.1410 Y79.6925 
G01 X-10.9608 Y79.6179 
G01 X-10.7985 Y79.5094 
G01 X-10.6606 Y79.3715 
G01 X-10.5521 Y79.2092 
G01 X-10.4775 Y79.0289 
G01 X-10.4394 Y78.8376 
G01 X-10.4394 Y76.8485 
G01 X-10.3757 Y76.7655 
G01 X-10.2408 Y76.5319 
G01 X-10.1376 Y76.2827 
G01 X-10.0678 Y76.0222 
G01 X-10.0326 Y75.7549 
G01 X-10.0326 Y75.4851 
G01 X-10.0455 Y75.3872 
G01 X-2.4798 Y75.3872 
G01 X-2.3635 Y75.3560 
G01 X-2.2593 Y75.2959 
G01 X-2.1741 Y75.2107 
G01 X-2.1140 Y75.1065 
G01 X-2.0828 Y74.9902 
G01 X-2.0828 Y62.1698 
G01 X-2.1140 Y62.0535 
G01 X-2.1741 Y61.9493 
G01 X-2.2593 Y61.8641 
G01 X-2.3635 Y61.8040 
G01 X-2.4798 Y61.7728 
G01 X-4.7938 Y61.7728 
G01 X-4.8777 Y61.6471 
G01 X-5.0051 Y61.5197 
G01 X-5.1549 Y61.4197 
G01 X-5.3213 Y61.3507 
G01 X-5.4979 Y61.3156 
G01 X-5.8928 Y61.3156 
G01 X-5.8928 Y55.2700 
G01 X-5.5114 Y55.6514 
G01 X-4.6486 Y55.6514 
G01 X-4.0386 Y55.0414 
G01 X-4.0386 Y54.1786 
G01 X-4.6486 Y53.5686 
G01 X-5.5114 Y53.5686 
G01 X-6.0956 Y54.1528 
G01 X-9.7028 Y54.1528 
G01 X-9.7028 Y50.9894 
G01 X-5.9841 Y47.2707 
G01 X-5.9240 Y47.1665 
G01 X-5.8928 Y47.0502 
G01 X-5.8928 Y46.6344 
G01 X-5.4979 Y46.6344 
G01 X-5.3213 Y46.5993 
G01 X-5.1549 Y46.5303 
G01 X-5.0051 Y46.4303 
G01 X-4.8777 Y46.3029 
G01 X-4.7777 Y46.1531 
G01 X-4.7087 Y45.9867 
G01 X-4.6736 Y45.8101 
G01 X-4.6736 Y45.6299 
G01 X-4.7087 Y45.4533 
G01 X-4.7777 Y45.2869 
G01 X-4.8777 Y45.1371 
G00 Z2.0000 
G00 X-17.7583 Y49.0119 
G01 Z0.0000 F254.00 
G01 X-17.8715 Y48.8987 F508.00 
G01 X-18.0046 Y48.8097 
G01 X-18.1525 Y48.7484 
G01 X-18.3095 Y48.7172 
G01 X-19.7905 Y48.7172 
G01 X-19.9475 Y48.7484 
G01 X-20.0954 Y48.8097 
G01 X-20.2285 Y48.8987 
G01 X-20.3417 Y49.0119 
G01 X-20.4307 Y49.1450 
G01 X-20.4920 Y49.2929 
G01 X-20.5232 Y49.4499 
G01 X-20.5232 Y49.6101 
G01 X-20.4920 Y49.7671 
G01 X-20.4307 Y49.9150 
G01 X-20.3417 Y50.0481 
G01 X-20.2285 Y50.1613 
G01 X-20.0954 Y50.2503 
G01 X-19.9475 Y50.3116 
G01 X-19.7905 Y50.3428 
G01 X-18.3095 Y50.3428 
G01 X-18.1525 Y50.3116 
G01 X-18.0046 Y50.2503 
G01 X-17.8715 Y50.1613 
G01 X-17.7583 Y50.0481 
G01 X-17.6693 Y49.9150 
G01 X-17.6080 Y49.7671 
G01 X-17.5768 Y49.6101 
G01 X-17.5768 Y49.4499 
G01 X-17.6080 Y49.2929 
G01 X-17.6693 Y49.1450 
G01 X-17.7583 Y49.0119 
G00 Z2.0000 
G00 X-25.3783 Y49.0119 
G01 Z0.0000 F254.00 
G01 X-25.4915 Y48.8987 F508.00 
G01 X-25.6246 Y48.8097 
G01 X-25.7725 Y48.7484 
G01 X-25.9295 Y48.7172 
G01 X-27.4105 Y48.7172 
G01 X-27.5675 Y48.7484 
G01 X-27.7154 Y48.8097 
G01 X-27.8485 Y48.8987 
G01 X-27.9617 Y49.0119 
G01 X-28.0507 Y49.1450 
G01 X-28.1120 Y49.2929 
G01 X-28.1432 Y49.4499 
G01 X-28.1432 Y49.6101 
G01 X-28.1120 Y49.7671 
G01 X-28.0507 Y49.9150 
G01 X-27.9617 Y50.0481 
G01 X-27.8485 Y50.1613 
G01 X-27.7154 Y50.2503 
G01 X-27.5675 Y50.3116 
G01 X-27.4105 Y50.3428 
G01 X-25.9295 Y50.3428 
G01 X-25.7725 Y50.3116 
G01 X-25.6246 Y50.2503 
G01 X-25.4915 Y50.1613 
G01 X-25.3783 Y50.0481 
G01 X-25.2893 Y49.9150 
G01 X-25.2280 Y49.7671 
G01 X-25.1968 Y49.6101 
G01 X-25.1968 Y49.4499 
G01 X-25.2280 Y49.2929 
G01 X-25.2893 Y49.1450 
G01 X-25.3783 Y49.0119 
G00 Z2.0000 
G00 X-26.1545 Y41.8846 
G01 Z0.0000 F254.00 
G01 X-25.4254 Y41.1555 F508.00 
G01 X-25.4254 Y40.1245 
G01 X-26.1545 Y39.3954 
G01 X-27.1855 Y39.3954 
G01 X-27.9146 Y40.1245 
G01 X-27.9146 Y40.1828 
G01 X-30.0228 Y40.1828 
G01 X-30.0228 Y26.6098 
G01 X-30.0540 Y26.4935 
G01 X-30.1141 Y26.3893 
G01 X-30.1993 Y26.3041 
G01 X-30.3035 Y26.2440 
G01 X-30.4198 Y26.2128 
G01 X-32.4113 Y26.2128 
G01 X-32.4632 Y26.1109 
G01 X-32.5619 Y25.9750 
G01 X-32.6806 Y25.8563 
G01 X-32.8165 Y25.7576 
G01 X-32.9661 Y25.6814 
G01 X-33.1258 Y25.6295 
G01 X-33.2916 Y25.6032 
G01 X-35.2884 Y25.6032 
G01 X-35.4542 Y25.6295 
G01 X-35.6139 Y25.6814 
G01 X-35.7635 Y25.7576 
G01 X-35.8994 Y25.8563 
G01 X-36.0181 Y25.9750 
G01 X-36.1168 Y26.1109 
G01 X-36.1930 Y26.2605 
G01 X-36.2449 Y26.4202 
G01 X-36.2712 Y26.5860 
G01 X-36.2712 Y26.7540 
G01 X-36.2449 Y26.9198 
G01 X-36.1930 Y27.0795 
G01 X-36.1168 Y27.2291 
G01 X-36.0181 Y27.3650 
G01 X-35.8994 Y27.4837 
G01 X-35.7635 Y27.5824 
G01 X-35.6139 Y27.6586 
G01 X-35.4542 Y27.7105 
G01 X-35.2884 Y27.7368 
G01 X-33.2916 Y27.7368 
G01 X-33.1258 Y27.7105 
G01 X-32.9661 Y27.6586 
G01 X-32.8165 Y27.5824 
G01 X-32.6806 Y27.4837 
G01 X-32.5619 Y27.3650 
G01 X-32.4632 Y27.2291 
G01 X-32.4113 Y27.1272 
G01 X-30.9372 Y27.1272 
G01 X-30.9372 Y40.7002 
G01 X-30.9060 Y40.8165 
G01 X-30.8458 Y40.9207 
G01 X-30.7607 Y41.0059 
G01 X-30.6565 Y41.0660 
G01 X-30.5402 Y41.0972 
G01 X-27.9146 Y41.0972 
G01 X-27.9146 Y41.1555 
G01 X-27.1855 Y41.8846 
G01 X-26.1545 Y41.8846 
G00 Z2.0000 
G00 X-32.6806 Y35.1037 
G01 Z0.0000 F254.00 
G01 X-32.5619 Y34.9850 F508.00 
G01 X-32.4632 Y34.8491 
G01 X-32.3870 Y34.6995 
G01 X-32.3351 Y34.5398 
G01 X-32.3088 Y34.3740 
G01 X-32.3088 Y34.2060 
G01 X-32.3351 Y34.0402 
G01 X-32.3870 Y33.8805 
G01 X-32.4632 Y33.7309 
G01 X-32.5619 Y33.5950 
G01 X-32.6806 Y33.4763 
G01 X-32.8165 Y33.3776 
G01 X-32.9661 Y33.3014 
G01 X-33.1258 Y33.2495 
G01 X-33.2916 Y33.2232 
G01 X-35.2884 Y33.2232 
G01 X-35.4542 Y33.2495 
G01 X-35.6139 Y33.3014 
G01 X-35.7635 Y33.3776 
G01 X-35.8994 Y33.4763 
G01 X-36.0181 Y33.5950 
G01 X-36.1168 Y33.7309 
G01 X-36.1930 Y33.8805 
G01 X-36.2449 Y34.0402 
G01 X-36.2712 Y34.2060 
G01 X-36.2712 Y34.3740 
G01 X-36.2449 Y34.5398 
G01 X-36.1930 Y34.6995 
G01 X-36.1168 Y34.8491 
G01 X-36.0181 Y34.9850 
G01 X-35.8994 Y35.1037 
G01 X-35.7635 Y35.2024 
G01 X-35.6139 Y35.2786 
G01 X-35.4542 Y35.3305 
G01 X-35.2884 Y35.3568 
G01 X-33.2916 Y35.3568 
G01 X-33.1258 Y35.3305 
G01 X-32.9661 Y35.2786 
G01 X-32.8165 Y35.2024 
G01 X-32.6806 Y35.1037 
G00 Z2.0000 
G00 X-32.6806 Y32.5637 
G01 Z0.0000 F254.00 
G01 X-32.5619 Y32.4450 F508.00 
G01 X-32.4632 Y32.3091 
G01 X-32.3870 Y32.1595 
G01 X-32.3351 Y31.9998 
G01 X-32.3088 Y31.8340 
G01 X-32.3088 Y31.6660 
G01 X-32.3351 Y31.5002 
G01 X-32.3870 Y31.3405 
G01 X-32.4632 Y31.1909 
G01 X-32.5619 Y31.0550 
G01 X-32.6806 Y30.9363 
G01 X-32.8165 Y30.8376 
G01 X-32.9661 Y30.7614 
G01 X-33.1258 Y30.7095 
G01 X-33.2916 Y30.6832 
G01 X-35.2884 Y30.6832 
G01 X-35.4542 Y30.7095 
G01 X-35.6139 Y30.7614 
G01 X-35.7635 Y30.8376 
G01 X-35.8994 Y30.9363 
G01 X-36.0181 Y31.0550 
G01 X-36.1168 Y31.1909 
G01 X-36.1930 Y31.3405 
G01 X-36.2449 Y31.5002 
G01 X-36.2712 Y31.6660 
G01 X-36.2712 Y31.8340 
G01 X-36.2449 Y31.9998 
G01 X-36.1930 Y32.1595 
G01 X-36.1168 Y32.3091 
G01 X-36.0181 Y32.4450 
G01 X-35.8994 Y32.5637 
G01 X-35.7635 Y32.6624 
G01 X-35.6139 Y32.7386 
G01 X-35.4542 Y32.7905 
G01 X-35.2884 Y32.8168 
G01 X-33.2916 Y32.8168 
G01 X-33.1258 Y32.7905 
G01 X-32.9661 Y32.7386 
G01 X-32.8165 Y32.6624 
G01 X-32.6806 Y32.5637 
G00 Z2.0000 
G00 X-32.6806 Y30.0237 
G01 Z0.0000 F254.00 
G01 X-32.5619 Y29.9050 F508.00 
G01 X-32.4632 Y29.7691 
G01 X-32.3870 Y29.6195 
G01 X-32.3351 Y29.4598 
G01 X-32.3088 Y29.2940 
G01 X-32.3088 Y29.1260 
G01 X-32.3351 Y28.9602 
G01 X-32.3870 Y28.8005 
G01 X-32.4632 Y28.6509 
G01 X-32.5619 Y28.5150 
G01 X-32.6806 Y28.3963 
G01 X-32.8165 Y28.2976 
G01 X-32.9661 Y28.2214 
G01 X-33.1258 Y28.1695 
G01 X-33.2916 Y28.1432 
G01 X-35.2884 Y28.1432 
G01 X-35.4542 Y28.1695 
G01 X-35.6139 Y28.2214 
G01 X-35.7635 Y28.2976 
G01 X-35.8994 Y28.3963 
G01 X-36.0181 Y28.5150 
G01 X-36.1168 Y28.6509 
G01 X-36.1930 Y28.8005 
G01 X-36.2449 Y28.9602 
G01 X-36.2712 Y29.1260 
G01 X-36.2712 Y29.2940 
G01 X-36.2449 Y29.4598 
G01 X-36.1930 Y29.6195 
G01 X-36.1168 Y29.7691 
G01 X-36.0181 Y29.9050 
G01 X-35.8994 Y30.0237 
G01 X-35.7635 Y30.1224 
G01 X-35.6139 Y30.1986 
G01 X-35.4542 Y30.2505 
G01 X-35.2884 Y30.2768 
G01 X-33.2916 Y30.2768 
G01 X-33.1258 Y30.2505 
G01 X-32.9661 Y30.1986 
G01 X-32.8165 Y30.1224 
G01 X-32.6806 Y30.0237 
G00 Z2.0000 
G00 X-32.6806 Y24.9437 
G01 Z0.0000 F254.00 
G01 X-32.5619 Y24.8250 F508.00 
G01 X-32.4632 Y24.6891 
G01 X-32.3870 Y24.5395 
G01 X-32.3351 Y24.3798 
G01 X-32.3088 Y24.2140 
G01 X-32.3088 Y24.0460 
G01 X-32.3351 Y23.8802 
G01 X-32.3870 Y23.7205 
G01 X-32.4632 Y23.5709 
G01 X-32.5619 Y23.4350 
G01 X-32.6806 Y23.3163 
G01 X-32.8165 Y23.2176 
G01 X-32.9661 Y23.1414 
G01 X-33.1258 Y23.0895 
G01 X-33.2916 Y23.0632 
G01 X-35.2884 Y23.0632 
G01 X-35.4542 Y23.0895 
G01 X-35.6139 Y23.1414 
G01 X-35.7635 Y23.2176 
G01 X-35.8994 Y23.3163 
G01 X-36.0181 Y23.4350 
G01 X-36.1168 Y23.5709 
G01 X-36.1930 Y23.7205 
G01 X-36.2449 Y23.8802 
G01 X-36.2712 Y24.0460 
G01 X-36.2712 Y24.2140 
G01 X-36.2449 Y24.3798 
G01 X-36.1930 Y24.5395 
G01 X-36.1168 Y24.6891 
G01 X-36.0181 Y24.8250 
G01 X-35.8994 Y24.9437 
G01 X-35.7635 Y25.0424 
G01 X-35.6139 Y25.1186 
G01 X-35.4542 Y25.1705 
G01 X-35.2884 Y25.1968 
G01 X-33.2916 Y25.1968 
G01 X-33.1258 Y25.1705 
G01 X-32.9661 Y25.1186 
G01 X-32.8165 Y25.0424 
G01 X-32.6806 Y24.9437 
G00 Z2.0000 
G00 X-32.6806 Y22.4037 
G01 Z0.0000 F254.00 
G01 X-32.5619 Y22.2850 F508.00 
G01 X-32.4632 Y22.1491 
G01 X-32.3870 Y21.9995 
G01 X-32.3351 Y21.8398 
G01 X-32.3088 Y21.6740 
G01 X-32.3088 Y21.5060 
G01 X-32.3351 Y21.3402 
G01 X-32.3870 Y21.1805 
G01 X-32.4632 Y21.0309 
G01 X-32.5619 Y20.8950 
G01 X-32.6806 Y20.7763 
G01 X-32.8165 Y20.6776 
G01 X-32.9661 Y20.6014 
G01 X-33.1258 Y20.5495 
G01 X-33.2916 Y20.5232 
G01 X-35.2884 Y20.5232 
G01 X-35.4542 Y20.5495 
G01 X-35.6139 Y20.6014 
G01 X-35.7635 Y20.6776 
G01 X-35.8994 Y20.7763 
G01 X-36.0181 Y20.8950 
G01 X-36.1168 Y21.0309 
G01 X-36.1930 Y21.1805 
G01 X-36.2449 Y21.3402 
G01 X-36.2712 Y21.5060 
G01 X-36.2712 Y21.6740 
G01 X-36.2449 Y21.8398 
G01 X-36.1930 Y21.9995 
G01 X-36.1168 Y22.1491 
G01 X-36.0181 Y22.2850 
G01 X-35.8994 Y22.4037 
G01 X-35.7635 Y22.5024 
G01 X-35.6139 Y22.5786 
G01 X-35.4542 Y22.6305 
G01 X-35.2884 Y22.6568 
G01 X-33.2916 Y22.6568 
G01 X-33.1258 Y22.6305 
G01 X-32.9661 Y22.5786 
G01 X-32.8165 Y22.5024 
G01 X-32.6806 Y22.4037 
G00 Z2.0000 
G00 X-32.6806 Y17.3237 
G01 Z0.0000 F254.00 
G01 X-32.5619 Y17.2050 F508.00 
G01 X-32.4632 Y17.0691 
G01 X-32.3870 Y16.9195 
G01 X-32.3351 Y16.7598 
G01 X-32.3088 Y16.5940 
G01 X-32.3088 Y16.4260 
G01 X-32.3351 Y16.2602 
G01 X-32.3870 Y16.1005 
G01 X-32.4632 Y15.9509 
G01 X-32.5619 Y15.8150 
G01 X-32.6806 Y15.6963 
G01 X-32.8165 Y15.5976 
G01 X-32.9661 Y15.5214 
G01 X-33.1258 Y15.4695 
G01 X-33.2916 Y15.4432 
G01 X-35.2884 Y15.4432 
G01 X-35.4542 Y15.4695 
G01 X-35.6139 Y15.5214 
G01 X-35.7635 Y15.5976 
G01 X-35.8994 Y15.6963 
G01 X-36.0181 Y15.8150 
G01 X-36.1168 Y15.9509 
G01 X-36.1930 Y16.1005 
G01 X-36.2449 Y16.2602 
G01 X-36.2712 Y16.4260 
G01 X-36.2712 Y16.5940 
G01 X-36.2449 Y16.7598 
G01 X-36.1930 Y16.9195 
G01 X-36.1168 Y17.0691 
G01 X-36.0181 Y17.2050 
G01 X-35.8994 Y17.3237 
G01 X-35.7635 Y17.4224 
G01 X-35.6139 Y17.4986 
G01 X-35.4542 Y17.5505 
G01 X-35.2884 Y17.5768 
G01 X-33.2916 Y17.5768 
G01 X-33.1258 Y17.5505 
G01 X-32.9661 Y17.4986 
G01 X-32.8165 Y17.4224 
G01 X-32.6806 Y17.3237 
G00 Z2.0000 
G00 X-32.5045 Y54.6354 
G01 Z0.0000 F254.00 
G01 X-33.5355 Y54.6354 F508.00 
G01 X-34.2646 Y55.3645 
G01 X-34.2646 Y56.3955 
G01 X-33.5355 Y57.1246 
G01 X-33.4772 Y57.1246 
G01 X-33.4772 Y57.2102 
G01 X-33.4460 Y57.3265 
G01 X-33.3858 Y57.4307 
G01 X-33.3007 Y57.5159 
G01 X-30.7607 Y60.0558 
G01 X-30.6565 Y60.1160 
G01 X-30.5402 Y60.1472 
G01 X-28.0024 Y60.1472 
G01 X-27.9617 Y60.2081 
G01 X-27.8485 Y60.3213 
G01 X-27.7154 Y60.4103 
G01 X-27.5675 Y60.4716 
G01 X-27.4105 Y60.5028 
G01 X-25.9295 Y60.5028 
G01 X-25.7725 Y60.4716 
G01 X-25.6246 Y60.4103 
G01 X-25.4915 Y60.3213 
G01 X-25.3783 Y60.2081 
G01 X-25.2893 Y60.0750 
G01 X-25.2280 Y59.9271 
G01 X-25.1968 Y59.7701 
G01 X-25.1968 Y59.6099 
G01 X-25.2280 Y59.4529 
G01 X-25.2893 Y59.3050 
G01 X-25.3783 Y59.1719 
G01 X-25.4915 Y59.0587 
G01 X-25.6246 Y58.9697 
G01 X-25.7725 Y58.9084 
G01 X-25.9295 Y58.8772 
G01 X-27.4105 Y58.8772 
G01 X-27.5675 Y58.9084 
G01 X-27.7154 Y58.9697 
G01 X-27.8485 Y59.0587 
G01 X-27.9617 Y59.1719 
G01 X-28.0024 Y59.2328 
G01 X-30.2906 Y59.2328 
G01 X-32.4516 Y57.0718 
G01 X-31.7754 Y56.3955 
G01 X-31.7754 Y55.3645 
G01 X-32.5045 Y54.6354 
G00 Z2.0000 
G00 X-20.2285 Y64.1387 
G01 Z0.0000 F254.00 
G01 X-20.3417 Y64.2519 F508.00 
G01 X-20.4307 Y64.3850 
G01 X-20.4920 Y64.5329 
G01 X-20.5232 Y64.6899 
G01 X-20.5232 Y64.8501 
G01 X-20.4920 Y65.0071 
G01 X-20.4307 Y65.1550 
G01 X-20.3417 Y65.2881 
G01 X-20.2285 Y65.4013 
G01 X-20.0954 Y65.4903 
G01 X-19.9475 Y65.5516 
G01 X-19.7905 Y65.5828 
G01 X-19.5072 Y65.5828 
G01 X-19.5072 Y67.3354 
G01 X-19.5655 Y67.3354 
G01 X-20.2946 Y68.0645 
G01 X-20.2946 Y69.0955 
G01 X-19.5655 Y69.8246 
G01 X-18.5345 Y69.8246 
G01 X-17.8054 Y69.0955 
G01 X-17.8054 Y68.0645 
G01 X-18.5345 Y67.3354 
G01 X-18.5928 Y67.3354 
G01 X-18.5928 Y65.5828 
G01 X-18.3095 Y65.5828 
G01 X-18.1525 Y65.5516 
G01 X-18.0046 Y65.4903 
G01 X-17.8715 Y65.4013 
G01 X-17.7583 Y65.2881 
G01 X-17.7175 Y65.2272 
G01 X-7.9062 Y65.2272 
G01 X-7.8223 Y65.3529 
G01 X-7.6949 Y65.4803 
G01 X-7.5451 Y65.5803 
G01 X-7.3787 Y65.6493 
G01 X-7.2021 Y65.6844 
G01 X-5.4979 Y65.6844 
G01 X-5.3213 Y65.6493 
G01 X-5.1549 Y65.5803 
G01 X-5.0051 Y65.4803 
G01 X-4.8777 Y65.3529 
G01 X-4.7777 Y65.2031 
G01 X-4.7087 Y65.0367 
G01 X-4.6736 Y64.8601 
G01 X-4.6736 Y64.6799 
G01 X-4.7087 Y64.5033 
G01 X-4.7777 Y64.3369 
G01 X-4.8777 Y64.1871 
G01 X-5.0051 Y64.0597 
G01 X-5.1549 Y63.9597 
G01 X-5.3213 Y63.8907 
G01 X-5.4979 Y63.8556 
G01 X-7.2021 Y63.8556 
G01 X-7.3787 Y63.8907 
G01 X-7.5451 Y63.9597 
G01 X-7.6949 Y64.0597 
G01 X-7.8223 Y64.1871 
G01 X-7.9062 Y64.3128 
G01 X-17.7175 Y64.3128 
G01 X-17.7583 Y64.2519 
G01 X-17.8715 Y64.1387 
G01 X-18.0046 Y64.0497 
G01 X-18.1525 Y63.9884 
G01 X-18.3095 Y63.9572 
G01 X-19.7905 Y63.9572 
G01 X-19.9475 Y63.9884 
G01 X-20.0954 Y64.0497 
G01 X-20.2285 Y64.1387 
G00 Z2.0000 
G00 Z5.0000 
M05
M02
