(.../EAGLE-7.2.0/ulp/pcb-gcode.ulp)
(Copyright 2005 - 2012 by John Johnson)
(See readme.txt for licensing terms.)
(This file generated from the board:)
(.../eagle/esppostkasse/postkasse.brd)
(Current profile is .../pcb-gcode-3.6.2.4/profiles/emc.pp  )
(This file generated 01-09-2017 13:08:28)
(Settings from pcb-machine.h)
(spindle on time = 3.0000)
(spindle speed = 20000.0000)
(tool change at 0.0000 0.0000 5.0000 )
(feed rate xy = F0.00  )
(feed rate z  = F508.00 )
(Z Axis Settings)
(  High     Up        Down     Drill)
(5.0000 	2.0000 	0.0000 	-1.6000 )
(Settings from pcb-defaults.h)
(isolate min = 0.0254)
(isolate max = 0.5080)
(isolate step = 0.1270)
(Generated top outlines, top drill, bottom outlines, bottom drill, )
(Unit of measure: mm)
( Tool|       Size       |  Min Sub |  Max Sub |   Count )
( T01 | 0.813mm 0.0320in | 0.0000in | 0.0000in |       0 )
( T02 | 1.000mm 0.0394in | 0.0000in | 0.0000in |       0 )
( T03 | 1.016mm 0.0400in | 0.0000in | 0.0000in |       0 )
( T04 | 1.600mm 0.0630in | 0.0000in | 0.0000in |       0 )
(Metric Mode)
G21
(Absolute Coordinates)
G90
S20000
G00 Z5.0000 
G00 X0.0000 Y0.0000 
M03
G04 P3.000000
M05
M06 T01 (0.8128 )
G01 Z0.0000 F508.00 
M06 
G00 Z2.0000 
M03
G04 P3.000000
G82 X-19.0500 Y46.9900 Z-1.6000 F508.00 R2.0000 P0.500000
G82 X-19.0500 Y49.5300 
G82 X-19.0500 Y52.0700 
G82 X-19.0500 Y54.6100 
G82 X-19.0500 Y57.1500 
G82 X-19.0500 Y59.6900 
G82 X-19.0500 Y62.2300 
G82 X-19.0500 Y64.7700 
G82 X-26.6700 Y64.7700 
G82 X-26.6700 Y62.2300 
G82 X-26.6700 Y59.6900 
G82 X-26.6700 Y57.1500 
G82 X-26.6700 Y54.6100 
G82 X-26.6700 Y52.0700 
G82 X-26.6700 Y49.5300 
G82 X-26.6700 Y46.9900 
M05
G00 Z5.0000 
G00 X0.0000 Y0.0000 
G01 Z0.0000 F508.00 
M06 
G00 Z2.0000 
M03
G04 P3.000000
G82 X-5.0800 Y52.0700 Z-1.6000 F508.00 R2.0000 P0.500000
G82 X-5.0800 Y54.6100 
G82 X-19.0500 Y40.6400 
G82 X-26.6700 Y40.6400 
G82 X-33.0200 Y55.8800 
G82 X-33.0200 Y63.5000 
G82 X-26.6700 Y68.5800 
G82 X-19.0500 Y68.5800 
G82 X-6.3500 Y26.6700 
G82 X-6.3500 Y19.0500 
M05
G00 Z5.0000 
G00 X0.0000 Y0.0000 
G01 Z0.0000 F508.00 
M06 
G00 Z2.0000 
M03
G04 P3.000000
G82 X-6.3500 Y43.1800 Z-1.6000 F508.00 R2.0000 P0.500000
G82 X-6.3500 Y45.7200 
G82 X-11.4300 Y34.2900 
G82 X-11.4300 Y31.7500 
G82 X-11.4300 Y29.2100 
G82 X-11.4300 Y26.6700 
G82 X-11.4300 Y24.1300 
G82 X-11.4300 Y21.5900 
G82 X-11.4300 Y19.0500 
G82 X-11.4300 Y16.5100 
G82 X-34.2900 Y16.5100 
G82 X-34.2900 Y19.0500 
G82 X-34.2900 Y21.5900 
G82 X-34.2900 Y24.1300 
G82 X-34.2900 Y26.6700 
G82 X-34.2900 Y29.2100 
G82 X-34.2900 Y31.7500 
G82 X-34.2900 Y34.2900 
G82 X-6.3500 Y62.2300 
G82 X-6.3500 Y64.7700 
M05
G00 Z5.0000 
G00 X0.0000 Y0.0000 
G01 Z0.0000 F508.00 
M06 
G00 Z2.0000 
M03
G04 P3.000000
G82 X-12.0900 Y3.1200 Z-1.6000 F508.00 R2.0000 P0.500000
G82 X-31.0900 Y3.1200 
G82 X-31.0900 Y75.6200 
G82 X-12.0900 Y75.6200 
T01 
G00 Z5.0000 
M05
M02
